shader_type canvas_item;

uniform bool include_aa;
uniform sampler2D img1;
uniform sampler2D img2;
uniform vec2 size;
uniform float threshold;
uniform float alpha;
uniform vec4 aa_color;
uniform vec4 diff_color;
uniform vec4 diff_color_alt;



void fragment() {
	
	// Called for every pixel the material is visible on.
}

